qml/icons/uuitk/nearby-search.svg

<?xml version="1.0" encoding="UTF-8" standalone="no"?>
<!-- Generator: Adobe Illustrator 17.0.1, SVG Export Plug-In . SVG Version: 6.00 Build 0)  -->

<svg
   xmlns:dc="http://purl.org/dc/elements/1.1/"
   xmlns:cc="http://creativecommons.org/ns#"
   xmlns:rdf="http://www.w3.org/1999/02/22-rdf-syntax-ns#"
   xmlns:svg="http://www.w3.org/2000/svg"
   xmlns="http://www.w3.org/2000/svg"
   xmlns:sodipodi="http://sodipodi.sourceforge.net/DTD/sodipodi-0.dtd"
   xmlns:inkscape="http://www.inkscape.org/namespaces/inkscape"
   version="1.1"
   id="Layer_1"
   x="0px"
   y="0px"
   width="64px"
   height="64px"
   viewBox="0 0 64 64"
   style="enable-background:new 0 0 64 64;"
   xml:space="preserve"
   sodipodi:docname="nearby_search_sfos.svg"
   inkscape:export-filename="/home/mo/Dokumente/Pure Maps/all/nearby_search_sfos.png"
   inkscape:export-xdpi="132"
   inkscape:export-ydpi="132"
   inkscape:version="0.92.4 5da689c313, 2019-01-14"><metadata
   id="metadata13"><rdf:RDF><cc:Work
       rdf:about=""><dc:format>image/svg+xml</dc:format><dc:type
         rdf:resource="http://purl.org/dc/dcmitype/StillImage" /><dc:title></dc:title></cc:Work></rdf:RDF></metadata><defs
   id="defs11" /><sodipodi:namedview
   pagecolor="#b7b7b7"
   bordercolor="#666666"
   borderopacity="1"
   objecttolerance="10"
   gridtolerance="10"
   guidetolerance="10"
   inkscape:pageopacity="0"
   inkscape:pageshadow="2"
   inkscape:window-width="2740"
   inkscape:window-height="1308"
   id="namedview9"
   showgrid="true"
   showguides="true"
   inkscape:guide-bbox="true"
   inkscape:zoom="13.956754"
   inkscape:cx="8.8579576"
   inkscape:cy="25.165287"
   inkscape:window-x="0"
   inkscape:window-y="0"
   inkscape:window-maximized="0"
   inkscape:current-layer="Layer_1"><inkscape:grid
     type="xygrid"
     id="grid830" /><sodipodi:guide
     position="31.446277,57"
     orientation="0,1"
     id="guide832"
     inkscape:locked="false" /><sodipodi:guide
     position="27,7"
     orientation="0,1"
     inkscape:locked="false"
     id="guide837" /><sodipodi:guide
     position="34.559844,16.705398"
     orientation="0,1"
     id="guide845"
     inkscape:locked="false" /></sodipodi:namedview>

<path
   style="opacity:0.6;fill:#808080;fill-opacity:1;stroke:none;stroke-width:0;stroke-linecap:butt;stroke-linejoin:miter;stroke-miterlimit:4;stroke-dasharray:none;stroke-opacity:1;paint-order:stroke markers fill"
   d="m 37.8125,41.613281 c -0.39077,0.536911 -0.759687,1.035086 -1.148438,1.5625 3.596825,0.714175 5.876676,2.187903 5.882813,3.802735 0.0012,2.345876 -4.721032,4.247885 -10.546875,4.248046 -5.825843,-1.61e-4 -10.548073,-1.90217 -10.546875,-4.248046 0.0018,-1.593991 2.219883,-3.053381 5.744141,-3.779297 -0.36452,-0.514848 -0.709624,-0.999867 -1.095704,-1.5625 -4.496405,1.012846 -7.342259,3.090327 -7.349609,5.365234 -3.3e-4,3.314763 5.931138,6.001982 13.248047,6.001953 7.316909,2.9e-5 13.248377,-2.68719 13.248047,-6.001953 -0.0038,-2.292087 -2.88902,-4.383044 -7.435547,-5.388672 z"
   id="path838"
   inkscape:connector-curvature="0"
   sodipodi:nodetypes="ccccccccccc" /><path
   style="opacity:1;fill:#808080;fill-opacity:1;stroke:none;stroke-width:1.30650985;stroke-miterlimit:4;stroke-dasharray:none;stroke-dashoffset:0;stroke-opacity:0.50196078"
   d="m 32.005859,5 c -9.275362,0 -15.769531,6.492216 -15.769531,15.767578 0,7.183039 10.013686,21.417449 13.796875,26.296875 0.02387,0.03061 0.04843,0.06133 0.07227,0.0918 1.184418,1.423032 3.10521,0.874495 3.605469,0.03711 l 0.04883,-0.06641 C 39.744272,38.964912 47.949443,28.690006 47.773444,20.767578 47.773444,11.492216 41.281227,5 32.005865,5 Z m 0.01563,2.1894531 c 7.920768,0 13.447266,6.0772789 13.447266,13.9980469 0.150295,6.765422 -6.852379,15.537772 -11.962891,22.507812 l -0.585937,0.798829 c -0.57749,0.817141 -1.381007,0.816396 -1.933599,-0.01172 C 28.511206,41.45772 18.541016,27.811561 18.541016,21.1875 c 0,-7.920768 5.559699,-13.9980469 13.480468,-13.9980469 z"
   id="Layer_7"
   inkscape:connector-curvature="0"
   sodipodi:nodetypes="sscccccssccccss" /><path
   style="opacity:0.6;fill:#808080;fill-opacity:1;stroke:none;stroke-width:0;stroke-linecap:butt;stroke-linejoin:miter;stroke-miterlimit:4;stroke-dasharray:none;stroke-opacity:1;paint-order:stroke markers fill"
   d="M 22.636719 36.271484 C 14.198888 38.088279 8.2789057 42.271617 8.2753906 47.15625 L 8.2753906 47.158203 L 8.2753906 47.160156 C 8.2801406 53.710981 18.903011 59.021484 32.005859 59.021484 C 45.108715 59.021484 55.729666 53.711039 55.734375 47.160156 L 55.734375 47.15625 C 55.730904 42.299931 49.879389 38.140045 41.519531 36.306641 C 41.163818 36.846995 40.796169 37.382433 40.427734 37.919922 C 47.826699 39.458903 53.006652 42.949828 53.009766 47.025391 L 53.009766 47.029297 C 53.005598 52.527488 43.604385 56.984375 32.005859 56.984375 C 20.407341 56.984375 11.0042 52.52744 11 47.029297 L 11 47.027344 L 11 47.025391 C 11.003102 42.938248 16.210081 39.436393 23.642578 37.904297 C 23.303564 37.370893 22.971932 36.819534 22.636719 36.271484 z "
   id="path847" /></svg>

<svg xmlns="http://www.w3.org/2000/svg" width="64" height="64" style="enable-background:new 0 0 64 64" xml:space="preserve"><path style="opacity:.6;fill:gray;fill-opacity:1;stroke:none;stroke-width:0;stroke-linecap:butt;stroke-linejoin:miter;stroke-miterlimit:4;stroke-dasharray:none;stroke-opacity:1;paint-order:stroke markers fill" d="M37.813 41.613c-.391.537-.76 1.035-1.149 1.563 3.597.714 5.877 2.188 5.883 3.803.001 2.345-4.721 4.247-10.547 4.248-5.826 0-10.548-1.903-10.547-4.248.002-1.594 2.22-3.054 5.744-3.78-.364-.515-.71-1-1.095-1.562-4.497 1.013-7.343 3.09-7.35 5.365 0 3.315 5.931 6.002 13.248 6.002 7.317 0 13.248-2.687 13.248-6.002-.004-2.292-2.889-4.383-7.435-5.389z"/><path style="opacity:1;fill:gray;fill-opacity:1;stroke:none;stroke-width:1.30650985;stroke-miterlimit:4;stroke-dasharray:none;stroke-dashoffset:0;stroke-opacity:.50196078" d="M32.006 5c-9.276 0-15.77 6.492-15.77 15.768 0 7.183 10.014 21.417 13.797 26.296l.072.092c1.185 1.423 3.106.875 3.606.037l.049-.066c5.984-8.162 14.19-18.437 14.013-26.36C47.773 11.493 41.281 5 32.006 5Zm.015 2.19c7.921 0 13.448 6.077 13.448 13.997.15 6.766-6.853 15.538-11.963 22.508l-.586.8c-.578.816-1.381.816-1.934-.013-2.475-3.024-12.445-16.67-12.445-23.294 0-7.921 5.56-13.999 13.48-13.999z"/><path style="opacity:.6;fill:gray;fill-opacity:1;stroke:none;stroke-width:0;stroke-linecap:butt;stroke-linejoin:miter;stroke-miterlimit:4;stroke-dasharray:none;stroke-opacity:1;paint-order:stroke markers fill" d="M22.637 36.271c-8.438 1.817-14.358 6-14.362 10.885v.004c.005 6.551 10.628 11.861 23.73 11.861 13.104 0 23.725-5.31 23.73-11.86v-.005c-.004-4.856-5.856-9.016-14.215-10.85-.356.541-.724 1.076-1.092 1.614 7.399 1.539 12.579 5.03 12.582 9.105v.004c-.004 5.498-9.406 9.955-21.004 9.955-11.599 0-21.002-4.457-21.006-9.955v-.004c.003-4.087 5.21-7.589 12.643-9.12-.34-.534-.671-1.085-1.006-1.634z"/></svg>
